X: 30993
T: Pa Paddy O'Sullivan's
R: polka
M: 2/4
K: Gmajor
|:BA/B/ G2|de/f/ gB|A2 AB|dd BA|
BA/B/ G2|de/f/ gB|AA BA|1 GF GA:|2 GF Gg||
|:fa d2|e/f/e/d/ BA|BA/B/ GE|B>A Bg|
fa d2|e/f/e/d/ BA|BA/B/ GB/d/|1 Gf Gg/e/:|2 gf gd||

